X:2
T:The cloutinach
Z: Jack Campin abc:purr.demon.co.uk abcusers 2003-8-18
N: From a 1680-ish violin tablature MS.
M:6/4
L:1/4
Q:3/4=100
K:D Minor
D2F G2A   |d2c A2A   |GFG    GFG|A2c dDD:|
fcA cd/c/A|cAc d2c   |f3     fdf|gag fdd:|
f2f gag   |agf df/d/c|Ac/A/G GFG|A2c dDD:|
